!!!COM: Scriabin, Alexander
!!!OTL: Prelude
!!!OPR: 24 Preludes
!!!OPS: 11
!!!ONM: 8
!!!ODT: 1895
!!!AGN: Prelude
**kern	**kern	**dynam
*staff2	*staff1	*staff1/2
*Ipiano	*Ipiano	*
*clefF4	*clefG2	*
*k[f#c#g#]	*k[f#c#g#]	*
*f#:	*f#:	*
*M3/4	*M3/4	*
=1	=1	=1
8CC#L	4r	.
8FF#	.	.
8C#	4a	.
8A	.	.
8f#	4ccc#	.
8C#J	.	.
=2	=2	=2
8CC#L	4r	.
8FF#	.	.
8D	4a	.
8A	.	.
8f#	4bb#X	.
8DJ	.	.
=3	=3	=3
8CC#L	12r	.
.	12ccc#L	.
8FF#	.	.
.	12aaJ	.
8C#	12gg#L	.
.	12ff#	.
8A	.	.
.	12ddJ	.
8f#	12cc#L	.
.	12bn	.
8C#J	.	.
.	12f#J	.
=4	=4	=4
8CC#L	2.a	.
8FF#	.	.
8C#	.	.
8A	.	.
8f#	.	.
8C#J	.	.
=5	=5	=5
8CC#L	4r	.
8BB	.	.
8F#	4dd	.
8d	.	.
8b	4fff#	.
8F#J	.	.
=6	=6	=6
8CC#L	4r	.
8BB	.	.
8Gn	4dd	.
8d	.	.
8b	4eee#X	.
8GJ	.	.
=7	=7	=7
8CC#L	12r	.
.	12fff#L	.
8BB	.	.
.	12dddJ	.
8F#	12ccc#L	.
.	12bb	.
8d	.	.
.	12ggnJ	.
8b	12ff#L	.
.	12een	.
8F#J	.	.
.	12bJ	.
=8	=8	=8
8CC#L	2.dd	.
8BB	.	.
8F#	.	.
8d	.	.
8b	.	.
8F#J	.	.
=9	=9	=9
8CC#L	12r	.
.	12b#XL	.
8GG#	.	.
.	12cc#J	.
8E#X	12ddL	.
.	12gg#	.
8B	.	.
.	12cc#J	.
8e#X	12ccc#L	.
.	12b#	.
8E#J	.	.
.	24r	.
.	24bnJk	.
=10	=10	=10
8DDL	2.b	.
8FF#	.	.
8F#	.	.
8B	.	.
8f#	.	.
8F#J	.	.
=11	=11	=11
8DD#XL	12r	.
.	12a#XL	.
8BB	.	.
.	12bJ	.
8F#	12cc#L	.
.	12ff#	.
8A	.	.
.	12bJ	.
8B	12aaL	.
.	12an	.
8AJ	.	.
.	24r	.
.	24f#Jk	.
=12	=12	=12
8EEL	2.e	.
8C#	.	.
8E	.	.
8A	.	.
8c#	.	.
8C#J	.	.
=13	=13	=13
*^	*^	*
8EE#XL	4.EE#	12c#L	12rc	.
.	.	12.d	[6d	.
8BB	.	.	.	.
.	.	24ddJk	.	.
8A	.	4dd	2d]	.
8FF#	4.FF#	.	.	.
8BB	.	4a	.	.
8AJ	.	.	.	.
=14	=14	=14	=14	=14
8GGnL	4.GG	12eL	12rc	.
.	.	12.e#X	[6e#	.
8C#	.	.	.	.
.	.	24ee#XJk	.	.
8B	.	4ee#	2e#]	.
8GG#X	4.GG#	.	.	.
8C#	.	4dd	.	.
8BJ	.	.	.	.
*	*	*v	*v	*
=15	=15	=15	=15
8AAL	4.AA	12f#L	.
.	.	12b#X	.
8D#X	.	.	.
.	.	12cc#J	.
8c#	.	12ff#L	.
.	.	12bn	.
8GG#	4.GG#	.	.
.	.	12b#XJ	.
8F#	.	12aaL	.
.	.	12gg#	.
8B#XJ	.	.	.
.	.	12ddnJ	.
*v	*v	*	*
=16	=16	=16
8C#L	12cc#L	.
.	12ccc#	.
8BnJ	.	.
.	12aaJ	.
4f#	12gg#L	.
.	12ff#	.
.	12ddJ	.
4e#X	12cc#L	.
.	12a	.
.	12g#J	.
=17	=17	=17
8FF#L	8f#	.
8BB	8r	.
8F#	4dd	.
8d	.	.
8b	4fff#	.
8F#J	.	.
=18	=18	=18
8FF#L	4r	.
8BB	.	.
8Gn	4dd	.
8d	.	.
8b	4eee#X	.
8GJ	.	.
=19	=19	=19
8FF#L	12r	.
.	12fff#L	.
8BB	.	.
.	12dddJ	.
8F#	12ccc#L	.
.	12bb	.
8d	.	.
.	12ggnJ	.
8b	12ff#L	.
.	12een	.
8F#J	.	.
.	12bJ	.
=20	=20	=20
8FF#L	2.dd	.
8BB	.	.
8F#	.	.
8d	.	.
8b	.	.
8F#J	.	.
=21	=21	=21
8FF#L	4r	.
8E	.	.
8B	4ggn	.
*clefG2	*	*
8gn	.	.
8ee	4bbb	.
8BJ	.	.
*clefF4	*	*
=22	=22	=22
8FF#L	4r	.
8E	.	.
8cn	4ggn	.
*clefG2	*	*
8gn	.	.
8ee	4aaa#X	.
8cnJ	.	.
*clefF4	*	*
=23	=23	=23
8FF#L	12r	.
.	12bbbL	.
8E	.	.
.	12gggnJ	.
8B	12fff#L	.
.	12eee	.
*clefG2	*	*
8gn	.	.
.	12cccnJ	.
8ee	12bbL	.
.	12aan	.
8BJ	.	.
.	12eeJ	.
*clefF4	*	*
=24	=24	=24
8FF#L	2.ggn	.
8E	.	.
8B	.	.
*clefG2	*	*
8gn	.	.
8ee	.	.
8BJ	.	.
*clefF4	*	*
=25	=25	=25
8FF#L	12r	.
.	12ee#XL	.
8C#	.	.
.	12ff#J	.
8A#X	12ggnL	.
.	12ccc#	.
8en	.	.
.	12ff#J	.
8a#X	12fff#L	.
.	12ee#	.
8A#J	.	.
.	24r	.
.	24eenJk	.
=26	=26	=26
8GGnL	2.ee	.
8BB	.	.
8B	.	.
*clefG2	*	*
8e	.	.
8b	.	.
8BJ	.	.
*clefF4	*	*
=27	=27	=27
8GG#XL	12r	.
.	12dd#XL	.
8E	.	.
.	12eeJ	.
8B	12ff#L	.
.	12bb	.
8d	.	.
.	12eeJ	.
8e	12dddL	.
.	12ddn	.
8dJ	.	.
.	24r	.
.	24bJk	.
=28	=28	=28
8AAL	2.a	.
8F#	.	.
8A	.	.
8d	.	.
8f#	.	.
8F#J	.	.
=29	=29	=29
*^	*^	*
8AA#XL	4.AA#	12f#L	12rc	.
.	.	12.gn	[6g	.
8E	.	.	.	.
.	.	24ggnJk	.	.
8d	.	4gg	2g]	.
8BB	4.BB	.	.	.
8E	.	4dd	.	.
8dJ	.	.	.	.
=30	=30	=30	=30	=30
8CnL	4.C	12aL	12rc	.
.	.	12.a#X	[6a#	.
8F#	.	.	.	.
.	.	24aa#XJk	.	.
8e	.	4aa#	2a#]	.
8C#X	4.C#	.	.	.
8F#	.	4ff#	.	.
8eJ	.	.	.	.
*v	*v	*	*	*
=31	=31	=31	=31
8DL	12a#XL	12rc	.
.	12.b	[6b	.
8Gn	.	.	.
.	24ggnJk 24bb	.	.
8d	4..gg 4..bb	4..b]	.
8G	.	.	.
8D	.	.	.
8GGnJ	.	.	.
.	16gn 16b	16B	.
*	*v	*v	*
=32	=32	=32
8DDL	2.B 2.gn 2.b	.
8GGn	.	.
8Gn	.	.
8D	.	.
8G	.	.
8dJ	.	.
=33	=33	=33
8DL	12gnL	.
.	12b	.
*clefG2	*	*
8B	.	.
.	12cc#J	.
8gn	12eeL	.
.	12cc#	.
8B	.	.
.	12ddJ	.
8dd	12cccnL	.
.	12bb	.
8gJ	.	.
.	12ggnJ	.
*clefF4	*	*
=34	=34	=34
8DL	12ff#L	.
.	12ddd	.
*clefG2	*	*
8cn	.	.
.	12cccnJ	.
8f#	12bbL	.
.	12aa	.
8c	.	.
.	12ff#J	.
8ccn	12eeL	.
.	12dd	.
8f#J	.	.
.	12bJ	.
*clefF4	*	*
=35	=35	=35
8DL	12gnL	.
.	12b	.
*clefG2	*	*
8B	.	.
.	12cc#J	.
8gn	12eeL	.
.	12cc#	.
8B	.	.
.	12ddJ	.
8dd	12cccnL	.
.	12bb	.
8gJ	.	.
.	12ggnJ	.
*clefF4	*	*
=36	=36	=36
8DL	12ff#L	.
.	12eee	.
8cn	.	.
.	24r	.
.	24cccnJk	.
8f#	12bbL	.
.	12aa	.
8c	.	.
.	12ff#J	.
8D	12eeL	.
.	12dd	.
8DJ	.	.
.	12bJ	.
=37	=37	=37
8DDL	4r	.
8GGn	.	.
8D	4gn	.
8B	.	.
8gn	4bb	.
8DJ	.	.
=38	=38	=38
8DDL	4r	.
8GG#X	.	.
8F#	4f#	.
8B#X	.	.
8f#	4bb#X	.
8F#J	.	.
=39	=39	=39
8CC#L	12r	.
.	12ccc#L	.
8FF#	.	.
.	12aaJ	.
8D	12gg#L	.
.	12ff#	.
8Bn	.	.
.	12ddJ	.
8f#	12cc#L	.
.	12b	.
8DJ	.	.
.	12f#J	.
=40	=40	=40
8CC#L	2.a	.
8FF#	.	.
8C#	.	.
8A	.	.
8f#	.	.
8C#J	.	.
=41	=41	=41
8CC#L	4r	.
8BB	.	.
8D	4gn	.
8B	.	.
8d	4ggn	.
8DJ	.	.
*clefG2	*	*
=42	=42	=42
4b	12dddL	.
.	12ccc#	.
.	12bbJ	.
4r	12ggnL	.
.	12ff#	.
.	12eeJ	.
4r	12ddL	.
.	12b	.
.	12gnJ	.
*clefF4	*	*
=43	=43	=43
8CC#L	4r	.
8BB	.	.
8Gn	4e#X	.
8B	.	.
8e#X	4cc#	.
8GJ	.	.
*clefG2	*	*
=44	=44	=44
*	*^	*
4b	2.ryy	12ccc#L	.
.	.	12bb	.
.	.	12aaJ	.
4r	.	12ggnL	.
.	.	12ee#X	.
.	.	12ddJ	.
4r	.	12cc#L	.
.	.	12a	.
.	.	[12gnJ	.
*clefF4	*	*	*
=45	=45	=45	=45
8FF#L	12raa	4g]	.
.	12fff#L	.	.
8BB	.	.	.
.	12dddJ	.	.
8Gn	12ccc#L	4rc	.
.	12bb	.	.
8en	.	.	.
.	12ggnJ	.	.
8b	12ff#L	4rc	.
.	12een	.	.
8GJ	.	.	.
.	12bJ	.	.
=46	=46	=46	=46
8FF#L	4dd	12rc	.
.	.	12ddL	.
8D	.	.	.
.	.	12bJ	.
8A	4ff#	12aL	.
.	.	12g#X	.
8DJ	.	.	.
.	.	12f#J	.
4f#	4raa	12dL	.
.	.	12c#	.
.	.	12BJ	.
=47	=47	=47	=47
8FF#L	12raa	4A	.
.	12ccc#L	.	.
8D	.	.	.
.	12aaJ	.	.
8A	12gg#L	4rc	.
.	12ff#	.	.
8B	.	.	.
.	12ddJ	.	.
8f#	12cc#L	4rc	.
.	12b	.	.
[8F#J	.	.	.
.	12f#J	.	.
*	*v	*v	*
=48	=48	=48
*^	*	*
4F#]	8FF#L	2.a	.
.	8C#	.	.
4rc	8A	.	.
.	8c#	.	.
4rc	8f#	.	.
.	8F#J	.	.
*v	*v	*	*
=49	=49	=49
8FF#L	12r	.
.	12fff#L	.
8BB	.	.
.	12dddJ	.
8Gn	12ccc#L	.
.	12bb	.
8e	.	.
.	12ggnJ	.
8b	12ff#L	.
.	12ee	.
8GJ	.	.
.	12bJ	.
=50	=50	=50
*	*^	*
8FF#L	4dd	12rc	.
.	.	12ddL	.
8D	.	.	.
.	.	12bJ	.
8A	4ff#	12aL	.
.	.	12g#X	.
8DJ	.	.	.
.	.	12f#J	.
4f#	4raa	12dL	.
.	.	12c#	.
.	.	12BJ	.
=51	=51	=51	=51
8FF#L	12raa	4A	.
.	12ccc#L	.	.
8D	.	.	.
.	12aaJ	.	.
8A	12gg#L	4rc	.
.	12ff#	.	.
8B	.	.	.
.	12ddJ	.	.
8f#	12cc#L	4rc	.
.	12b	.	.
8F#J	.	.	.
.	12f#J	.	.
*	*v	*v	*
=52	=52	=52
8FF#L	2.a	.
8C#	.	.
8A	.	.
8c#	.	.
8f#	.	.
8F#J	.	.
=53	=53	=53
8FF#L	12r	.
.	12ccc#L	.
8D	.	.
.	12aaJ	.
8A	12gg#L	.
.	12ff#	.
8B	.	.
.	12ddJ	.
8f#	12cc#L	.
.	12b	.
8F#J	.	.
.	12f#J	.
=54	=54	=54
8FF#L	2.a	.
8C#	.	.
8A	.	.
8c#	.	.
8f#	.	.
8F#J	.	.
=55	=55	=55
8FF#L	2.r	.
8C#	.	.
8A	.	.
8c#	.	.
8f#	.	.
8F#J	.	.
=56	=56	=56
4FFF#	2.r	.
4r	.	.
4r	.	.
==	==	==
*-	*-	*-
!!!system-decoration: {(*)}
!!!ENC: Bryan Jacob Bell
!!!END: November 2021 to April 2022
!!!PED: Günter Philipp
!!!PTL: Ausgewählte Klavierwerke (Edition Peters)
